-----BEGIN PGP SIGNATURE-----

wsFcBAABCgAQBQJolIKQCRCFq5bm+hvl/gAA3xkP/1f23xVFF4YzsBNmQK6SGai0
P8DEhO4FigBJG4V0lY4Cnuq0bKhX/oz0bZ7c9lPosW7UOc/UONHRJdwdoQoq1aQr
a6mw/eWCogbEGO4ljAznSPUIuoDy8JJn4Lfac8x5ZcfU1dibeipCYuZup5thJoF8
kyJkK4NY9pjSlTT1tLzGLJec1oQ3hJxsM665WEcUztYFXMr0XS9xBOLCUsjm2LlX
D1b0t9HFC5p9IZB/IXDZWwFHUVIeC6YwePA21hxQXifo0ZY/uzbX0Axu2kuVSUTj
1QnMNs9vz6J4lAXMU+iu7B3ynKgbfnrkGROn18w1wXwAdqnj+UU8HLqPJahdErqI
zfXlwpN0oXVP5+RjXHEkZI3kiQKNXekfreFGw+XVxPm9DU3P4PGqQ9KUv3ca4jOI
JcqvNHlyqn4x5q8JtFWmsEjh5bBzWnhvugPn7MEsTL8xluSmePYmF0We6EYq2tKo
zJEhf2VYfddR2o6raWKz17sdG6nSAomSdJb3GwcrurQQgOHeBUa+83R2sqfrQ/oy
WBKz9GyOluAm70Fp/OXw8CY4jq/7ssuvTjUoNZXoMYJH1npvfHxzU55aDanY9ANj
tl1pnKKgiYOm+Ci3RSddmKIiRIwh6YTUShjB9FAWwqSGeNn3ZoShXebGwRX557FT
a3Th0pUZXrJtW3ra3gp/
=e+Qd
-----END PGP SIGNATURE-----
